src/images/footer_icon_2.svg

<svg width="40" height="40" viewBox="0 0 40 40" fill="none" xmlns="http://www.w3.org/2000/svg">
<rect width="40" height="40" rx="20" fill="#15131D"/>
<g clip-path="url(#clip0_447_25733)">
<path d="M28.5357 13.2334C28.5219 13.1701 28.4916 13.1117 28.4478 13.0639C28.4041 13.0162 28.3484 12.981 28.2866 12.9618C28.0615 12.9174 27.8286 12.9341 27.6121 13.01C27.6121 13.01 12.5923 18.4084 11.7346 19.0063C11.5493 19.1348 11.4877 19.2093 11.4571 19.2977C11.3087 19.723 11.7705 19.9105 11.7705 19.9105L15.6416 21.1722C15.707 21.1835 15.7741 21.1794 15.8377 21.1604C16.7184 20.6043 24.6978 15.5654 25.1591 15.3961C25.2314 15.3741 25.285 15.3961 25.2732 15.4497C25.0846 16.0957 18.1937 22.2195 18.1557 22.257C18.1372 22.2721 18.1227 22.2916 18.1133 22.3136C18.104 22.3356 18.1002 22.3596 18.1021 22.3834L17.7421 26.1607C17.7421 26.1607 17.5911 27.3393 18.7675 26.1607C19.6016 25.3255 20.4019 24.6345 20.8032 24.2986C22.1344 25.2173 23.5669 26.2336 24.1846 26.7629C24.2883 26.8635 24.4111 26.9423 24.5459 26.9944C24.6806 27.0465 24.8245 27.0709 24.9689 27.0661C25.5582 27.0436 25.7189 26.3991 25.7189 26.3991C25.7189 26.3991 28.4553 15.3875 28.5475 13.9116C28.5561 13.767 28.5684 13.6743 28.5694 13.5752C28.5743 13.4602 28.563 13.3452 28.5357 13.2334Z" fill="#757185"/>
</g>
<defs>
<clipPath id="clip0_447_25733">
<rect width="17.1429" height="17.1429" fill="white" transform="translate(11.4277 11.4287)"/>
</clipPath>
</defs>
</svg>

<svg xmlns="http://www.w3.org/2000/svg" width="40" height="40" fill="none"><rect width="40" height="40" fill="#15131D" rx="20"/><g clip-path="url(#a)"><path fill="#757185" d="M28.536 13.233a.366.366 0 0 0-.25-.271 1.286 1.286 0 0 0-.674.048s-15.02 5.398-15.877 5.996c-.186.129-.247.203-.278.292-.148.425.313.613.313.613l3.872 1.261a.43.43 0 0 0 .196-.012c.88-.556 8.86-5.595 9.321-5.764.072-.022.126 0 .114.054-.188.646-7.08 6.77-7.117 6.807a.148.148 0 0 0-.054.126l-.36 3.778s-.15 1.178 1.025 0a32.208 32.208 0 0 1 2.036-1.862c1.331.918 2.764 1.935 3.382 2.464a1.076 1.076 0 0 0 .784.303c.59-.022.75-.667.75-.667s2.736-11.012 2.828-12.487c.01-.145.021-.238.022-.337a1.221 1.221 0 0 0-.033-.342Z"/></g><defs><clipPath id="a"><path fill="#fff" d="M11.428 11.429H28.57v17.143H11.428z"/></clipPath></defs></svg>
